public/images/dev44.svg

<svg width="100" height="100" viewBox="0 0 100 100" fill="none" xmlns="http://www.w3.org/2000/svg">
<path d="M20.7879 90.3159C20.5819 95.7417 16.2567 100 10.9017 100C5.27211 100 1.08423 95.467 1.08423 89.9038C1.08423 84.3406 5.61538 79.8077 11.1763 79.8077C13.6479 79.8077 16.1194 80.9066 18.179 82.8297L16.6 84.8214C15.021 83.4478 13.0986 82.4863 11.1763 82.4863C7.12577 82.4863 3.76173 85.783 3.76173 89.9038C3.76173 94.0934 6.9198 97.3214 10.9017 97.3214C14.4717 97.3214 17.2865 94.7115 17.9044 91.2775H9.73461V88.8736H20.7879V90.3159Z" fill="#565656"/>
<path d="M30.1248 88.9423H28.6144C26.9667 88.9423 25.5936 90.3159 25.5936 91.9643V99.7939H22.9161V86.3324H25.1131V87.4313C25.8683 86.6758 26.9667 86.3324 28.2711 86.3324H31.1546L30.1248 88.9423Z" fill="#565656"/>
<path d="M44.8167 99.7939H42.4825V98.0769C40.6975 99.7939 37.9513 100.618 35.1365 99.3818C33.0769 98.489 31.4979 96.5659 31.0859 94.2994C30.2621 89.9725 33.6261 86.1263 37.8827 86.1263C39.6677 86.1263 41.3154 86.8818 42.4825 88.0494V86.3324H44.8167V99.7939ZM42.0706 94.0934C42.6884 91.3461 40.6288 88.8736 37.9513 88.8736C35.6171 88.8736 33.7634 90.7967 33.7634 93.0632C33.7634 95.673 36.029 97.6648 38.7065 97.2527C40.2856 96.978 41.6586 95.673 42.0706 94.0934Z" fill="#565656"/>
<path d="M50.1717 85.6456V86.4011H54.4283V88.7363H50.1717V99.7939H47.5629V85.7143C47.5629 82.761 49.6911 81.0439 52.3686 81.0439H55.5954L54.4969 83.5852H52.3686C51.1329 83.5165 50.1717 84.478 50.1717 85.6456Z" fill="#565656"/>
<path d="M68.7083 99.7939H66.4427V98.0769C64.6577 99.7939 61.9115 100.618 59.0967 99.3818C57.0371 98.489 55.4581 96.5659 55.0461 94.2994C54.2223 89.9725 57.5863 86.1263 61.8429 86.1263C63.6279 86.1263 65.2756 86.8818 66.4427 88.0494V86.3324H68.7769V99.7939H68.7083ZM65.9621 94.0934C66.58 91.3461 64.5204 88.8736 61.8429 88.8736C59.5087 88.8736 57.655 90.7967 57.655 93.0632C57.655 95.673 59.9206 97.6648 62.5981 97.2527C64.2458 96.978 65.5502 95.673 65.9621 94.0934Z" fill="#565656"/>
<path d="M83.0569 91.8956V99.7939H80.3794V91.8269C80.3794 90.1785 79.0063 88.8049 77.3586 88.8049C75.6423 88.8049 74.3379 90.1785 74.3379 91.8269V99.7939H71.6604V86.3324H73.8573V87.5C74.8184 86.6071 76.1229 86.1263 77.4273 86.1263C80.5854 86.195 83.0569 88.7362 83.0569 91.8956Z" fill="#565656"/>
<path d="M98.8473 99.7939H96.5817V98.0769C94.7967 99.7939 92.0506 100.618 89.2358 99.3818C87.1761 98.489 85.5971 96.5659 85.1852 94.2994C84.3613 89.9725 87.7254 86.1263 91.9819 86.1263C93.7669 86.1263 95.4146 86.8818 96.5817 88.0494V86.3324H98.916V99.7939H98.8473ZM96.1011 94.0934C96.719 91.3461 94.6594 88.8736 91.9819 88.8736C89.6477 88.8736 87.794 90.7967 87.794 93.0632C87.794 95.673 90.0596 97.6648 92.7371 97.2527C94.3848 96.978 95.6892 95.673 96.1011 94.0934Z" fill="#565656"/>
<path d="M85.4598 34.272C85.3225 32.967 85.1165 31.456 84.7046 29.8077C84.2927 28.1593 83.6061 26.3736 82.7136 24.4505C81.7525 22.5962 80.5854 20.6044 79.0063 18.75C78.3885 17.9945 77.7019 17.3077 77.0154 16.5522C78.1138 12.2253 75.711 8.4478 75.711 8.4478C71.5231 8.17308 68.9142 9.75275 67.9531 10.4396C67.8158 10.3709 67.6098 10.3022 67.4725 10.2335C66.786 9.95879 66.0308 9.68406 65.2756 9.40934C64.5204 9.2033 63.7652 8.92857 63.01 8.79121C62.2548 8.58516 61.431 8.4478 60.6071 8.31044C60.4698 8.31044 60.3325 8.24176 60.1952 8.24176C58.4102 2.47253 53.1925 0 53.1925 0C47.2196 3.84615 46.0525 8.99725 46.0525 8.99725C46.0525 8.99725 46.0525 9.13461 45.9838 9.27198C45.6406 9.34066 45.366 9.47802 45.0227 9.5467C44.6108 9.68406 44.1302 9.82143 43.7183 10.0275C43.3063 10.2335 42.8258 10.3709 42.4138 10.5769C41.5213 10.989 40.6975 11.4011 39.805 11.8819C38.9812 12.3626 38.1573 12.8434 37.4021 13.3929C37.2648 13.3242 37.1961 13.2555 37.1961 13.2555C29.1636 10.1648 22.0237 13.8736 22.0237 13.8736C21.4058 22.4588 25.2504 27.8159 26.0056 28.7775C25.7996 29.3269 25.6623 29.8077 25.4563 30.3571C24.8385 32.2802 24.4265 34.272 24.1519 36.3324C24.0833 36.6071 24.0833 36.9505 24.0146 37.2253C16.6 40.8654 14.4031 48.4203 14.4031 48.4203C20.5819 55.5632 27.8592 55.9753 27.8592 55.9753C28.7517 57.6236 29.8502 59.2033 31.0173 60.6456C31.4979 61.2637 32.0471 61.8132 32.5963 62.4313C30.3308 68.8874 32.9396 74.3132 32.9396 74.3132C39.8737 74.5879 44.4048 71.2912 45.366 70.5357C46.0525 70.7418 46.739 70.9478 47.4256 71.1538C49.5538 71.7033 51.7508 72.0467 53.879 72.1154C54.4283 72.1154 54.9775 72.1154 55.5267 72.1154H55.8013H56.0073H56.3506H56.6938C59.9206 76.7857 65.6875 77.4038 65.6875 77.4038C69.7381 73.0769 70.0127 68.8874 70.0127 67.9258C70.0127 67.9258 70.0127 67.9258 70.0127 67.8571C70.0127 67.7885 70.0127 67.7198 70.0127 67.7198C70.0127 67.6511 70.0127 67.5824 70.0127 67.5137C70.8365 66.8956 71.6604 66.2775 72.4842 65.5907C74.1319 64.1483 75.505 62.4313 76.7408 60.6456C76.8781 60.5082 76.9467 60.3022 77.084 60.1648C81.6838 60.4396 84.9106 57.2802 84.9106 57.2802C84.1554 52.4725 81.4092 50.1374 80.86 49.7253C80.86 49.7253 80.86 49.7253 80.7913 49.6566L80.7227 49.5879L80.654 49.5192C80.654 49.2445 80.7227 48.9698 80.7227 48.6264C80.7913 48.0769 80.7913 47.5961 80.7913 47.0467V46.6346V46.4286V46.3599C80.7913 46.2225 80.7913 46.2912 80.7913 46.2225V45.8791V45.467C80.7913 45.3297 80.7913 45.1923 80.7913 45.0549C80.7913 44.9176 80.7913 44.7802 80.7227 44.6429L80.654 44.2308L80.5854 43.8187C80.5167 43.2692 80.3794 42.7885 80.3108 42.239C79.8302 40.1786 79.0063 38.1868 77.9765 36.4698C76.8781 34.6841 75.5737 33.1731 74.0633 31.7994C72.5529 30.4945 70.9052 29.3956 69.1202 28.6401C67.3352 27.8159 65.5502 27.3352 63.6965 27.1291C62.804 26.9918 61.8429 26.9918 60.9504 26.9918H60.6071H60.5385H60.4011H60.2638H59.9206C59.7833 26.9918 59.646 26.9918 59.5773 26.9918C59.0967 27.0604 58.6161 27.1291 58.2042 27.1978C56.3506 27.5412 54.6342 28.228 53.1238 29.1209C51.6135 30.0137 50.309 31.1813 49.2106 32.4863C48.1121 33.7912 47.2883 35.1648 46.739 36.6758C46.1898 38.1181 45.8465 39.6978 45.7779 41.1401C45.7779 41.4835 45.7779 41.8956 45.7779 42.239C45.7779 42.3077 45.7779 42.4451 45.7779 42.5137V42.7885C45.7779 42.9945 45.7779 43.1319 45.8465 43.3379C45.9152 44.0934 46.0525 44.7802 46.2585 45.467C46.6704 46.8407 47.2883 48.0769 48.1121 49.1758C48.936 50.2747 49.8285 51.0989 50.8583 51.7857C51.8881 52.4725 52.9179 52.9533 54.0163 53.2967C55.1148 53.6401 56.1446 53.7775 57.1058 53.7088C57.2431 53.7088 57.3804 53.7088 57.449 53.7088C57.5177 53.7088 57.5863 53.7088 57.655 53.7088C57.7236 53.7088 57.7923 53.7088 57.861 53.7088C57.9983 53.7088 58.0669 53.7088 58.2042 53.7088H58.2729H58.3415C58.4102 53.7088 58.4788 53.7088 58.5475 53.7088C58.6848 53.7088 58.8221 53.6401 58.8908 53.6401C59.0281 53.6401 59.0967 53.5714 59.234 53.5714C59.44 53.5027 59.7146 53.4341 59.9206 53.3654C60.3325 53.228 60.7444 53.022 61.1563 52.8846C61.5683 52.6786 61.9115 52.4725 62.1861 52.2665C62.2548 52.1978 62.3921 52.1291 62.4608 52.0604C62.804 51.7857 62.8727 51.3049 62.5981 50.9615C62.3235 50.6868 61.9115 50.6181 61.5683 50.7555C61.4996 50.8242 61.431 50.8242 61.2936 50.8928C61.019 51.0302 60.6758 51.1676 60.4011 51.2363C60.0579 51.3049 59.7146 51.4423 59.3713 51.511C59.1654 51.511 59.0281 51.5797 58.8221 51.5797C58.7535 51.5797 58.6161 51.5797 58.5475 51.5797C58.4788 51.5797 58.3415 51.5797 58.2729 51.5797C58.2042 51.5797 58.0669 51.5797 57.9983 51.5797C57.861 51.5797 57.7923 51.5797 57.655 51.5797H57.5863H57.5177C57.449 51.5797 57.449 51.5797 57.3804 51.5797C57.3117 51.5797 57.1744 51.5797 57.1058 51.511C56.3506 51.3736 55.5267 51.1676 54.7715 50.8242C54.0163 50.4808 53.2611 50 52.6433 49.3819C51.9567 48.7637 51.4075 48.0769 50.9269 47.2527C50.4463 46.4286 50.1717 45.5357 50.0344 44.6429C49.9658 44.1621 49.8971 43.6813 49.9658 43.2005C49.9658 43.0632 49.9658 42.9258 49.9658 42.7885V42.7198V42.6511C49.9658 42.5824 49.9658 42.5137 49.9658 42.445C49.9658 42.1703 50.0344 41.9643 50.1031 41.6896C50.4463 39.6291 51.4761 37.6374 53.0552 36.1264C53.4671 35.7143 53.879 35.3709 54.3596 35.0961C54.8402 34.7527 55.3208 34.478 55.8013 34.272C56.2819 34.0659 56.8311 33.8599 57.3804 33.7225C57.9296 33.5852 58.4788 33.4478 59.0281 33.4478C59.3027 33.4478 59.5773 33.3791 59.8519 33.3791C59.9206 33.3791 59.9892 33.3791 60.0579 33.3791H60.2638H60.4011H60.4698H60.6758C61.2937 33.4478 61.9115 33.5165 62.4608 33.6538C63.6279 33.9286 64.795 34.3407 65.8935 34.9588C68.0904 36.1951 69.944 38.0494 71.0425 40.3159C71.5917 41.4148 72.0036 42.6511 72.2096 43.956C72.2783 44.2994 72.2783 44.5742 72.3469 44.9176V45.1236V45.3297C72.3469 45.3983 72.3469 45.467 72.3469 45.5357C72.3469 45.6044 72.3469 45.6731 72.3469 45.7418V45.9478V46.1538C72.3469 46.2912 72.3469 46.5659 72.3469 46.7033C72.3469 47.0467 72.2783 47.3901 72.2783 47.7335C72.2096 48.0769 72.2096 48.4203 72.141 48.7637C72.0723 49.1071 72.0036 49.4505 71.935 49.7939C71.7977 50.4808 71.5231 51.0989 71.3171 51.7857C70.8365 53.0907 70.15 54.3269 69.3261 55.4258C67.6785 57.6923 65.4129 59.5467 62.8727 60.7143C61.5683 61.2637 60.2638 61.7445 58.8908 61.9505C58.2042 62.0879 57.5177 62.1566 56.8311 62.1566H56.6938H56.5565H56.3506H56.0073H55.8013H55.7327C55.3894 62.1566 54.9775 62.1566 54.6342 62.0879C53.1238 61.9505 51.6821 61.6758 50.2404 61.2637C48.7986 60.8516 47.4256 60.3022 46.1211 59.6154C43.5123 58.2418 41.1781 56.25 39.3244 53.9835C38.4319 52.8159 37.6081 51.5797 36.9215 50.2747C36.235 48.9698 35.7544 47.5961 35.3425 46.2225C34.9306 44.8489 34.7246 43.4066 34.656 41.9643V41.6896V41.6209V41.5522V41.4148V41.2088V41.1401V41.0714V40.9341V40.5907V40.522V40.3846C34.656 40.1786 34.656 40.0412 34.656 39.8352C34.656 39.1483 34.7246 38.3929 34.8619 37.6374C34.9306 36.8819 35.0679 36.195 35.2052 35.4396C35.3425 34.6841 35.5485 33.9972 35.7544 33.2418C36.1663 31.7994 36.6469 30.4258 37.2648 29.1209C38.5006 26.511 40.0796 24.1758 41.9333 22.3214C42.4138 21.8407 42.8944 21.4286 43.4437 21.0165C43.6496 20.8104 44.1302 20.3983 44.6794 20.0549C45.2286 19.7115 45.7779 19.3681 46.3958 19.0934C46.6704 18.956 46.945 18.8187 47.2883 18.6813C47.4256 18.6126 47.5629 18.544 47.7688 18.4753C47.9062 18.4066 48.0435 18.3379 48.2494 18.2692C48.8673 17.9945 49.4852 17.7885 50.1031 17.5824C50.2404 17.5137 50.4463 17.5137 50.5836 17.4451C50.721 17.3764 50.9269 17.3764 51.0642 17.3077C51.4075 17.239 51.6821 17.1703 52.0254 17.033C52.1627 16.9643 52.3686 16.9643 52.506 16.8956C52.6433 16.8956 52.8492 16.8269 52.9865 16.8269C53.1238 16.8269 53.3298 16.7582 53.4671 16.7582L53.7417 16.6896L54.0163 16.6209C54.1536 16.6209 54.3596 16.5522 54.4969 16.5522C54.7029 16.5522 54.8402 16.4835 55.0461 16.4835C55.1835 16.4835 55.4581 16.4148 55.5954 16.4148C55.7327 16.4148 55.8013 16.4148 55.9386 16.3462H56.1446H56.2819H56.4192C56.6252 16.3462 56.7625 16.3462 56.9685 16.2775H57.2431H57.3117H57.449C57.5863 16.2775 57.7923 16.2775 57.9296 16.2775C58.5475 16.2775 59.1654 16.2775 59.7833 16.2775C61.019 16.3462 62.2548 16.4835 63.4219 16.6896C65.7561 17.1016 68.0217 17.8571 70.0127 18.8874C72.0036 19.8489 73.8573 21.0852 75.3677 22.3901C75.4363 22.4588 75.5736 22.5275 75.6423 22.6648C75.711 22.7335 75.8483 22.8022 75.9169 22.9396C76.1229 23.0769 76.2602 23.283 76.4661 23.4203C76.6721 23.5577 76.8094 23.7637 77.0154 23.9011C77.1527 24.1071 77.3587 24.2445 77.496 24.4505C78.1825 25.1374 78.8004 25.8929 79.3496 26.5797C80.4481 28.022 81.3406 29.4643 82.0271 30.8379C82.0958 30.9066 82.0958 30.9753 82.1644 31.1126C82.2331 31.1813 82.2331 31.25 82.3017 31.3874C82.3704 31.5247 82.439 31.7308 82.5763 31.8681C82.645 32.0055 82.7136 32.2115 82.7823 32.3489C82.851 32.4863 82.9196 32.6923 82.9883 32.8297C83.2629 33.4478 83.4688 34.0659 83.6748 34.6841C84.0181 35.6456 84.224 36.4698 84.43 37.1566C84.4986 37.4313 84.7733 37.6374 85.0479 37.6374C85.3911 37.6374 85.5971 37.3626 85.5971 37.0192C85.5285 36.1951 85.5285 35.3022 85.4598 34.272Z" fill="url(#paint0_linear_1_7747)"/>
<defs>
<linearGradient id="paint0_linear_1_7747" x1="50.0001" y1="94.8562" x2="50.0001" y2="24.216" gradientUnits="userSpaceOnUse">
<stop stop-color="#FCEE1F"/>
<stop offset="1" stop-color="#F15B2A"/>
</linearGradient>
</defs>
</svg>

<svg xmlns="http://www.w3.org/2000/svg" width="100" height="100" fill="none"><path fill="#565656" d="M20.788 90.316c-.206 5.426-4.531 9.684-9.886 9.684-5.63 0-9.818-4.533-9.818-10.096s4.531-10.096 10.092-10.096c2.472 0 4.943 1.099 7.003 3.022L16.6 84.82c-1.579-1.373-3.501-2.335-5.424-2.335-4.05 0-7.414 3.297-7.414 7.418 0 4.19 3.158 7.417 7.14 7.417 3.57 0 6.385-2.61 7.002-6.043h-8.17v-2.404h11.054zM30.125 88.942h-1.51c-1.648 0-3.021 1.374-3.021 3.022v7.83h-2.678V86.332h2.197v1.1c.755-.756 1.854-1.1 3.158-1.1h2.884zM44.817 99.794h-2.334v-1.717c-1.785 1.717-4.532 2.541-7.346 1.305-2.06-.893-3.64-2.816-4.051-5.083-.824-4.327 2.54-8.173 6.797-8.173 1.785 0 3.432.756 4.6 1.923v-1.717h2.334zm-2.746-5.7c.617-2.748-1.442-5.22-4.12-5.22-2.334 0-4.188 1.923-4.188 4.19 0 2.609 2.266 4.6 4.944 4.189 1.579-.275 2.952-1.58 3.364-3.16M50.172 85.646v.755h4.256v2.335h-4.256v11.058h-2.61v-14.08c0-2.953 2.13-4.67 4.807-4.67h3.226l-1.098 2.541h-2.128a2.06 2.06 0 0 0-2.197 2.06M68.708 99.794h-2.265v-1.717c-1.785 1.717-4.532 2.541-7.346 1.305-2.06-.893-3.639-2.816-4.05-5.083-.825-4.327 2.54-8.173 6.796-8.173 1.785 0 3.433.756 4.6 1.923v-1.717h2.334v13.462zm-2.746-5.7c.618-2.748-1.442-5.22-4.12-5.22-2.333 0-4.187 1.923-4.187 4.19 0 2.609 2.266 4.6 4.943 4.189 1.648-.275 2.952-1.58 3.364-3.16M83.057 91.896v7.898h-2.678v-7.967c0-1.648-1.373-3.022-3.02-3.022a3.004 3.004 0 0 0-3.021 3.022v7.967H71.66V86.332h2.197V87.5c.961-.893 2.266-1.374 3.57-1.374 3.158.069 5.63 2.61 5.63 5.77M98.847 99.794h-2.265v-1.717c-1.785 1.717-4.531 2.541-7.346 1.305-2.06-.893-3.639-2.816-4.05-5.083-.825-4.327 2.54-8.173 6.796-8.173 1.785 0 3.433.756 4.6 1.923v-1.717h2.334v13.462zm-2.746-5.7c.618-2.748-1.442-5.22-4.12-5.22-2.333 0-4.187 1.923-4.187 4.19 0 2.609 2.266 4.6 4.943 4.189 1.648-.275 2.952-1.58 3.364-3.16"/><path fill="url(#a)" d="M85.46 34.272c-.137-1.305-.343-2.816-.755-4.464s-1.099-3.434-1.991-5.357c-.962-1.855-2.129-3.847-3.708-5.701-.618-.756-1.304-1.442-1.99-2.198 1.098-4.327-1.305-8.104-1.305-8.104-4.188-.275-6.797 1.305-7.758 1.992-.137-.07-.343-.138-.48-.207a76 76 0 0 0-2.197-.824c-.756-.206-1.51-.48-2.266-.618-.755-.206-1.579-.343-2.403-.48-.137 0-.274-.07-.412-.07C58.41 2.474 53.193 0 53.193 0c-5.973 3.846-7.14 8.997-7.14 8.997s0 .138-.07.275c-.342.069-.617.206-.96.275-.412.137-.893.274-1.305.48-.412.207-.892.344-1.304.55-.893.412-1.717.824-2.609 1.305-.824.48-1.648.961-2.403 1.51-.137-.068-.206-.136-.206-.136-8.032-3.091-15.172.618-15.172.618-.618 8.585 3.226 13.942 3.982 14.904-.206.549-.344 1.03-.55 1.58-.617 1.922-1.03 3.914-1.304 5.974-.069.275-.069.618-.137.893-7.415 3.64-9.612 11.195-9.612 11.195 6.179 7.143 13.456 7.555 13.456 7.555.893 1.649 1.991 3.228 3.158 4.67.48.619 1.03 1.168 1.58 1.786-2.266 6.456.343 11.882.343 11.882 6.934.275 11.465-3.022 12.426-3.777l2.06.618c2.128.55 4.325.893 6.453.961h2.815c3.227 4.67 8.993 5.289 8.993 5.289 4.051-4.327 4.326-8.517 4.326-9.478v-.412c.823-.618 1.647-1.236 2.471-1.923 1.648-1.443 3.021-3.16 4.257-4.945.137-.138.206-.344.343-.481 4.6.275 7.827-2.885 7.827-2.885-.756-4.808-3.502-7.143-4.051-7.555l-.069-.068-.068-.07-.069-.068c0-.274.069-.55.069-.893.068-.55.068-1.03.068-1.58v-1.991c0-.137 0-.275-.068-.412l-.069-.412-.069-.412c-.068-.55-.206-1.03-.274-1.58a20.4 20.4 0 0 0-2.335-5.77c-1.098-1.785-2.402-3.296-3.913-4.67-1.51-1.305-3.158-2.403-4.943-3.159a17.3 17.3 0 0 0-5.424-1.51c-.892-.138-1.853-.138-2.746-.138h-1.373c-.48.068-.96.137-1.373.206a15.6 15.6 0 0 0-5.08 1.923c-1.51.893-2.815 2.06-3.913 3.365-1.099 1.305-1.923 2.679-2.472 4.19-.55 1.442-.892 3.022-.961 4.464v1.648c0 .207 0 .344.069.55.068.755.206 1.442.411 2.129a11.8 11.8 0 0 0 1.854 3.709 11 11 0 0 0 2.746 2.61c1.03.686 2.06 1.167 3.158 1.51q1.648.516 3.09.413h1.442c.137 0 .274-.069.343-.069.137 0 .206-.069.343-.069.206-.068.48-.137.687-.206.412-.137.823-.343 1.235-.48a7 7 0 0 0 1.03-.618c.069-.07.206-.138.275-.207.343-.274.412-.755.137-1.099a.96.96 0 0 0-1.03-.206c-.068.07-.137.07-.274.138a4.8 4.8 0 0 1-.893.343c-.343.069-.686.206-1.03.275-.206 0-.343.069-.549.069H57.38c-.068 0-.206 0-.274-.069-.755-.137-1.58-.343-2.334-.687-.756-.343-1.51-.824-2.129-1.442a8.7 8.7 0 0 1-1.716-2.13c-.48-.823-.755-1.716-.893-2.61-.068-.48-.137-.96-.068-1.442v-.755c0-.275.068-.48.137-.755a10.05 10.05 0 0 1 2.952-5.564c.412-.412.824-.755 1.305-1.03q.72-.515 1.441-.824c.48-.206 1.03-.412 1.58-.55.549-.137 1.098-.274 1.647-.274.275 0 .55-.069.824-.069h.824c.618.069 1.235.138 1.785.275 1.167.275 2.334.687 3.433 1.305 2.196 1.236 4.05 3.09 5.148 5.357.55 1.099.962 2.335 1.168 3.64.068.343.068.618.137.962v1.786c0 .343-.069.686-.069 1.03-.068.343-.068.686-.137 1.03l-.206 1.03c-.137.687-.412 1.305-.618 1.992a14.4 14.4 0 0 1-1.99 3.64 16.66 16.66 0 0 1-6.454 5.288c-1.305.55-2.61 1.03-3.982 1.236q-1.03.207-2.06.207h-1.098c-.344 0-.755 0-1.099-.07a23.6 23.6 0 0 1-4.394-.823 21.5 21.5 0 0 1-4.119-1.649c-2.609-1.373-4.943-3.365-6.797-5.632-.892-1.167-1.716-2.403-2.402-3.708s-1.168-2.679-1.58-4.053c-.411-1.373-.617-2.815-.686-4.258v-2.129c0-.687.069-1.442.206-2.198.069-.755.206-1.442.343-2.197s.343-1.443.55-2.198c.411-1.443.892-2.816 1.51-4.121 1.236-2.61 2.815-4.945 4.668-6.8.48-.48.961-.892 1.51-1.305a7.8 7.8 0 0 1 1.236-.961c.55-.343 1.099-.687 1.717-.962.274-.137.549-.274.892-.412.138-.068.275-.137.48-.206.138-.068.276-.137.481-.206.618-.274 1.236-.48 1.854-.687.137-.068.343-.068.48-.137.138-.069.344-.069.481-.137.343-.069.618-.138.961-.275.138-.069.344-.069.481-.137.137 0 .343-.07.48-.07.138 0 .344-.068.481-.068l.275-.068.274-.07c.138 0 .344-.068.48-.068.207 0 .344-.069.55-.069.138 0 .412-.068.55-.068.137 0 .205 0 .343-.069h.48c.206 0 .344 0 .55-.069h2.814a31 31 0 0 1 3.639.413c2.334.412 4.6 1.167 6.59 2.197a25 25 0 0 1 5.356 3.503c.068.069.206.137.274.275.069.069.206.137.275.275.206.137.343.343.55.48.205.138.342.344.548.481.138.206.344.343.481.55.687.686 1.304 1.442 1.854 2.129a27 27 0 0 1 2.677 4.258c.069.069.069.137.137.275.07.068.07.137.138.274.068.138.137.344.274.481.069.137.138.344.206.48.069.138.138.344.206.482.275.618.48 1.236.687 1.854.343.962.549 1.786.755 2.473a.66.66 0 0 0 .618.48c.343 0 .55-.274.55-.618-.07-.824-.07-1.717-.138-2.747"/><defs><linearGradient id="a" x1="50" x2="50" y1="94.856" y2="24.216" gradientUnits="userSpaceOnUse"><stop stop-color="#FCEE1F"/><stop offset="1" stop-color="#F15B2A"/></linearGradient></defs></svg>
